X:4263
L:1/8
M:4/4
K:C
 ave aaged e ABC accdg .f ua a aed C E3 e!p!ace G D e | 
[M:4/4][K:G] fed[Q:1/8=180]"^D modal" .D2 (3FED AD (3FED | ABBA GEcE | D2 (3FED ADFA | d2 ed cAGE | 
 D2 (3FED AD (3FED | A2 BA GEDA | cABG A3 B | d2 ed cAGE :| Ad d2 Ad d2 | Ad d2 ed B/c/d | 
 eaag a3 z | a3 g ed B/^c/d | efge a2 ge | f2 ed cA A2 | cABG A3 B |1 d2 ed cAdB :|2 d2 ed cAGE || 
"^final" D8 ||

